neru-light-classic/22x22/status/rotation-locked-symbolic.svg

<?xml version="1.0" encoding="UTF-8" standalone="no"?>
<svg
   xmlns:dc="http://purl.org/dc/elements/1.1/"
   xmlns:cc="http://creativecommons.org/ns#"
   xmlns:rdf="http://www.w3.org/1999/02/22-rdf-syntax-ns#"
   xmlns:svg="http://www.w3.org/2000/svg"
   xmlns="http://www.w3.org/2000/svg"
   xmlns:sodipodi="http://sodipodi.sourceforge.net/DTD/sodipodi-0.dtd"
   xmlns:inkscape="http://www.inkscape.org/namespaces/inkscape"
   width="22"
   height="22"
   version="1.1"
   id="svg6"
   sodipodi:docname="rotation-locked-symbolic.svg"
   inkscape:version="0.92.4 5da689c313, 2019-01-14">
  <metadata
     id="metadata12">
    <rdf:RDF>
      <cc:Work
         rdf:about="">
        <dc:format>image/svg+xml</dc:format>
        <dc:type
           rdf:resource="http://purl.org/dc/dcmitype/StillImage" />
      </cc:Work>
    </rdf:RDF>
  </metadata>
  <defs
     id="defs10" />
  <sodipodi:namedview
     pagecolor="#ffffff"
     bordercolor="#666666"
     borderopacity="1"
     objecttolerance="10"
     gridtolerance="10"
     guidetolerance="10"
     inkscape:pageopacity="0"
     inkscape:pageshadow="2"
     inkscape:window-width="769"
     inkscape:window-height="515"
     id="namedview8"
     showgrid="false"
     inkscape:zoom="10.727273"
     inkscape:cx="-1.6779661"
     inkscape:cy="11"
     inkscape:window-x="0"
     inkscape:window-y="28"
     inkscape:window-maximized="0"
     inkscape:current-layer="svg6" />
  <path
     style="fill:#1e333d;fill-opacity:1"
     d="M 13,9 C 11.89,9 11,9.91 11,11.03 V 12 H 10 V 16 H 16 V 12 H 15 V 11.03 C 15,9.91 14.11,9 13,9 Z M 13,10 C 13.55,10 14,10.44 14,11 V 12 H 12 V 11 C 12,10.44 12.45,10 13,10 Z"
     id="path2" />
  <path
     style="opacity:0.3;fill:#1e333d;fill-opacity:1"
     d="m 12,4.9999906 c -3.3137,0 -6,2.6863 -6,6.0000004 H 4 l 3,4 3,-4 H 8 c 0,-2.2091004 1.7909,-4.0000004 4,-4.0000004 2.209,0 4,1.7909 4,4.0000004 h 2 C 18,7.6862906 15.314,4.9999906 12,4.9999906 Z m 1,9.8570004 c -0.3214,0.084 -0.6526,0.143 -1,0.143 a 1,1 0 0 0 -1,1 1,1 0 0 0 1,1 1,1 0 0 0 0.0957,-0.004 c 0.3085,-0.005 0.6087,-0.04 0.9043,-0.09 z"
     id="path4"
     inkscape:connector-curvature="0" />
</svg>

<svg xmlns="http://www.w3.org/2000/svg" width="22" height="22"><path d="M13 9c-1.11 0-2 .91-2 2.03V12h-1v4h6v-4h-1v-.97C15 9.91 14.11 9 13 9zm0 1c.55 0 1 .44 1 1v1h-2v-1c0-.56.45-1 1-1z" fill="#1e333d"/><path d="M12 5a6 6 0 0 0-6 6H4l3 4 3-4H8a4 4 0 0 1 8 0h2a6 6 0 0 0-6-6zm1 9.857A3.933 3.933 0 0 1 12 15a1 1 0 0 0-1 1 1 1 0 0 0 1 1 1 1 0 0 0 .096-.004c.308-.005.608-.04.904-.09z" opacity=".3" fill="#1e333d"/></svg>
